packages/tokens/icons/productPriceTag/size24Px.svg

<svg viewBox="0 0 24 24" fill="none" xmlns="http://www.w3.org/2000/svg" width="1em" height="1em"><path d="M18.7062 3.72092C18.4053 2.79386 17.418 2.2759 16.4843 2.55552L11.1823 4.14324C10.6606 4.29949 10.1411 4.74384 9.88336 5.19789L4.47181 14.7299C3.98324 15.5905 4.2875 16.6831 5.14754 17.1713L12.4563 21.3207C13.3163 21.8089 14.4104 21.5102 14.899 20.6497L20.3106 11.1177C20.5797 10.6436 20.7254 9.94217 20.5355 9.35727L18.7062 3.72092Z" stroke="currentColor" stroke-linecap="round"/><path d="M15 11.5933V11.437V11.437C15 10.5741 14.3004 9.87451 13.4375 9.87451H11.5625C10.6996 9.87451 10 10.5741 10 11.437V11.437C10 12.3 10.6996 12.9995 11.5625 12.9995H13.4375C14.3004 12.9995 15 13.6991 15 14.562V14.562C15 15.425 14.3004 16.1245 13.4375 16.1245H11.5625C10.6996 16.1245 10 15.425 10 14.562V14.562V14.2495" stroke="currentColor" stroke-linecap="round"/><path d="M12.5 8.62451L12.5 17.3745" stroke="currentColor" stroke-linecap="round"/><path d="M17.0652 6.75302C16.7925 7.2333 16.1821 7.40161 15.7019 7.12894C15.2216 6.85627 15.0533 6.24589 15.3259 5.7656C15.5986 5.28532 16.209 5.11702 16.6893 5.38969C17.1696 5.66236 17.3379 6.27274 17.0652 6.75302Z" stroke="currentColor"/></svg>

<svg xmlns="http://www.w3.org/2000/svg" fill="none" viewBox="0 0 24 24" width="1em" height="1em"><path stroke="currentColor" stroke-linecap="round" d="M18.706 3.72a1.795 1.795 0 0 0-2.222-1.164l-5.302 1.587c-.521.156-1.04.6-1.299 1.055L4.472 14.73a1.791 1.791 0 0 0 .676 2.441l7.308 4.15c.86.488 1.954.19 2.443-.671l5.412-9.532c.269-.474.414-1.176.224-1.76L18.706 3.72Z"/><path stroke="currentColor" stroke-linecap="round" d="M15 11.593v-.156 0c0-.863-.7-1.562-1.563-1.562h-1.874c-.863 0-1.563.7-1.563 1.562v0C10 12.3 10.7 13 11.563 13h1.874C14.3 13 15 13.7 15 14.561v0c0 .863-.7 1.563-1.563 1.563h-1.874c-.863 0-1.563-.7-1.563-1.563v0-.313m2.5-5.623v8.75"/><path stroke="currentColor" d="M17.065 6.753a1 1 0 1 1-1.739-.987 1 1 0 0 1 1.74.987Z"/></svg>
